imgs/attachment.svg

<svg width="12" height="16" fill="none" xmlns="http://www.w3.org/2000/svg"><path d="M3 5v4c0 1.7 1.3 3 3 3s3-1.3 3-3V4.5C9 2 7 0 4.5 0S0 2 0 4.5V10c0 3.3 2.7 6 6 6s6-2.7 6-6V4h-2v6c0 2.2-1.8 4-4 4s-4-1.8-4-4V4.5C2 3.1 3.1 2 4.5 2S7 3.1 7 4.5V9c0 .6-.4 1-1 1s-1-.4-1-1V5H3z" fill="#5B5863"/></svg>

<svg width="12" height="16" viewBox="0 0 12 16" fill="none" xmlns="http://www.w3.org/2000/svg">
<path d="M3 5V9C3 10.7 4.3 12 6 12C7.7 12 9 10.7 9 9V4.5C9 2 7 0 4.5 0C2 0 0 2 0 4.5V10C0 13.3 2.7 16 6 16C9.3 16 12 13.3 12 10V4H10V10C10 12.2 8.2 14 6 14C3.8 14 2 12.2 2 10V4.5C2 3.1 3.1 2 4.5 2C5.9 2 7 3.1 7 4.5V9C7 9.6 6.6 10 6 10C5.4 10 5 9.6 5 9V5H3Z" fill="#5B5863"/>
</svg>
